img/providers/squares/nimbuzz.svg

<?xml version="1.0" encoding="UTF-8" standalone="no"?>
<!-- Created with Inkscape (http://www.inkscape.org/) -->

<svg
   xmlns:dc="http://purl.org/dc/elements/1.1/"
   xmlns:cc="http://creativecommons.org/ns#"
   xmlns:rdf="http://www.w3.org/1999/02/22-rdf-syntax-ns#"
   xmlns:svg="http://www.w3.org/2000/svg"
   xmlns="http://www.w3.org/2000/svg"
   xmlns:sodipodi="http://sodipodi.sourceforge.net/DTD/sodipodi-0.dtd"
   xmlns:inkscape="http://www.inkscape.org/namespaces/inkscape"
   width="40"
   height="40"
   id="svg4676"
   version="1.1"
   inkscape:version="0.48.4 r9939"
   sodipodi:docname="nimbuzz.svg"
   inkscape:export-filename="/home/adansdpc/Desarrollo/GitHub/waalt/loqui/src-next/img/providers/squares/xmpp.png"
   inkscape:export-xdpi="90"
   inkscape:export-ydpi="90">
  <defs
     id="defs4678" />
  <sodipodi:namedview
     id="base"
     pagecolor="#ffffff"
     bordercolor="#666666"
     borderopacity="1.0"
     inkscape:pageopacity="0.0"
     inkscape:pageshadow="2"
     inkscape:zoom="13.7625"
     inkscape:cx="29.139389"
     inkscape:cy="12.649007"
     inkscape:document-units="px"
     inkscape:current-layer="layer1"
     showgrid="false"
     borderlayer="true"
     inkscape:showpageshadow="false"
     inkscape:window-width="2560"
     inkscape:window-height="1391"
     inkscape:window-x="0"
     inkscape:window-y="25"
     inkscape:window-maximized="1"
     inkscape:snap-page="true"
     inkscape:snap-bbox="true"
     inkscape:bbox-paths="true"
     inkscape:bbox-nodes="true"
     inkscape:snap-bbox-edge-midpoints="true" />
  <metadata
     id="metadata4681">
    <rdf:RDF>
      <cc:Work
         rdf:about="">
        <dc:format>image/svg+xml</dc:format>
        <dc:type
           rdf:resource="http://purl.org/dc/dcmitype/StillImage" />
        <dc:title />
      </cc:Work>
    </rdf:RDF>
  </metadata>
  <g
     inkscape:label="Capa 1"
     inkscape:groupmode="layer"
     id="layer1"
     transform="translate(0,-1012.3622)">
    <g
       transform="translate(-752.74933,122.41945)"
       id="g9472">
      <rect
         y="889.94275"
         x="752.74933"
         height="40"
         width="40"
         id="rect9474"
         style="fill:#ff8702;fill-opacity:1;stroke:none" />
      <path
         style="font-size:26.92712784px;font-style:normal;font-variant:normal;font-weight:normal;font-stretch:normal;text-align:start;line-height:100%;letter-spacing:0px;word-spacing:0px;writing-mode:lr-tb;text-anchor:start;fill:#ffffff;fill-opacity:1;stroke:none;font-family:Arial Black;-inkscape-font-specification:'Arial Black,'"
         d="M 10.78125 10.375 L 10.78125 29.625 L 16.375 29.625 L 16.375 19.0625 L 23.59375 29.625 L 29.21875 29.625 L 29.21875 10.375 L 23.59375 10.375 L 23.59375 21.03125 L 16.34375 10.375 L 10.78125 10.375 z "
         transform="translate(752.74933,889.94275)"
         id="text5016-4-3-5-6-0-5" />
    </g>
  </g>
</svg>

<svg xmlns="http://www.w3.org/2000/svg" viewBox="0 0 40 40">
<g transform="translate(-752.74933 -889.94275)">
<path fill="#ff8702" d="m752.749,889.943h40v40h-40z"/>
<path fill="#fff" word-spacing="0" line-height="100%" d="m10.7812,10.375v19.25h5.5938v-10.5625l7.2188,10.5625h5.625v-19.25h-5.625v10.6562l-7.25-10.6562h-5.5625z" letter-spacing="0" transform="translate(752.74933 889.94275)"/>
</g>
</svg>
